32x32/apps/com.github.plugarut.wingpanel-monitor.svg

<svg xmlns="http://www.w3.org/2000/svg" width="32" height="32" version="1">
 <rect style="opacity:0.2" width="19" height="28" x="6" y="3" rx="2.036" ry="2.1"/>
 <rect style="fill:#868686" width="19" height="28" x="6" y="2" rx="2.036" ry="2.1"/>
 <circle style="fill:#555761" cx="15.5" cy="14.5" r="7.5"/>
 <path style="opacity:0.2" d="m 13.204263,10.000018 c -1.148092,0.001 -2.209158,0.615212 -2.783738,1.611315 l -0.346816,0.600023 -0.0062,0.01078 c -0.03382,0.0586 -0.01565,0.1321 0.03989,0.164201 l 4.05284,2.343312 c -0.854029,-0.264372 -1.779131,-0.16152 -2.553518,0.283859 -0.995345,0.574421 -1.6078853,1.636859 -1.606719,2.786809 7.86e-4,1.149263 0.614405,2.211541 1.60978,2.786807 l 0.600023,0.346818 0.01078,0.0062 c 0.05854,0.03383 0.132131,0.01569 0.164201,-0.03989 l 2.324898,-4.031356 c -0.251734,0.846022 -0.145773,1.758065 0.293105,2.522857 0.573526,0.995544 1.634028,1.608562 2.782203,1.608247 1.148641,-4.86e-4 2.210419,-0.614738 2.785274,-1.611315 l 0.346817,-0.600023 0.0062,-0.01078 c 0.03382,-0.0586 0.01563,-0.132107 -0.03989,-0.164201 l -3.919331,-2.265048 c 0.820706,0.217935 1.6939,0.102655 2.429248,-0.320728 0.994862,-0.574148 1.607329,-1.635874 1.606712,-2.785273 -7.87e-4,-1.149263 -0.614405,-2.211542 -1.609781,-2.786809 l -0.600023,-0.346838 -0.01078,-0.0061 c -0.05854,-0.03382 -0.132131,-0.0157 -0.1642,0.0399 l -2.364797,4.09888 c 0.293548,-0.875289 0.197987,-1.834243 -0.262405,-2.633351 -0.573833,-0.996037 -1.635047,-1.6091298 -2.783773,-1.608264 z"/>
 <path style="fill:#9ab4c0" d="m 13.204263,9.0000181 c -1.148092,0.00102 -2.209158,0.6152124 -2.783738,1.6113149 l -0.346816,0.600023 -0.0062,0.01078 c -0.03382,0.0586 -0.01565,0.1321 0.03989,0.164201 l 4.05284,2.343312 c -0.854029,-0.264372 -1.779131,-0.16152 -2.553518,0.283859 -0.995345,0.574421 -1.6078853,1.636859 -1.606719,2.786809 7.86e-4,1.149263 0.614405,2.211541 1.60978,2.786807 l 0.600023,0.346818 0.01078,0.0062 c 0.05854,0.03383 0.132131,0.01569 0.164201,-0.03989 l 2.324898,-4.031356 c -0.251734,0.846022 -0.145773,1.758065 0.293105,2.522857 0.573526,0.995544 1.634028,1.608562 2.782203,1.608247 1.148641,-4.86e-4 2.210419,-0.614738 2.785274,-1.611315 l 0.346817,-0.600023 0.0062,-0.01078 c 0.03382,-0.0586 0.01563,-0.132107 -0.03989,-0.164201 l -3.919331,-2.265048 c 0.820706,0.217935 1.6939,0.102655 2.429248,-0.320728 0.994862,-0.574148 1.607329,-1.635874 1.606712,-2.785273 -7.87e-4,-1.149263 -0.614405,-2.211542 -1.609781,-2.7868086 l -0.600023,-0.3468381 -0.01078,-0.00613 c -0.05854,-0.033824 -0.132131,-0.015698 -0.1642,0.039898 L 16.250441,13.241633 C 16.543989,12.366344 16.448428,11.40739 15.988036,10.608282 15.414203,9.6122456 14.352989,8.9991523 13.204263,9.0000181 Z"/>
 <circle style="opacity:0.2" cx="21.174" cy="5.673" r="1.5" transform="matrix(0.86602252,0.500005,-0.49999501,0.86602828,0,0)"/>
 <circle style="fill:#f4f4f7" cx="20.674" cy="4.807" r="1.5" transform="matrix(0.86602252,0.500005,-0.49999501,0.86602828,0,0)"/>
 <circle style="opacity:0.2" cx="15.5" cy="5.5" r="1.5"/>
 <circle style="fill:#87d22b" cx="15.5" cy="4.5" r="1.5"/>
 <path style="fill:#555761" d="M 8 23 L 8 25 L 11 25 L 11 23 L 8 23 z M 12 23 L 12 26 L 15 26 L 15 23 L 12 23 z"/>
 <path style="fill:#555761" d="m 16,23 v 1 h 3 v -1 z"/>
 <path style="fill:#87d22b" d="m 20,23 v 5 h 3 v -5 z"/>
 <path style="fill:#87d22b" d="m 16,24 v 4 h 3 v -4 z"/>
 <path style="fill:#87d22b" d="m 8,25 v 3 h 3 v -3 z"/>
 <path style="fill:#87d22b" d="m 12,26 v 2 h 3 v -2 z"/>
 <path style="opacity:0.2" d="M 8 28 L 8 29 L 11 29 L 11 28 L 8 28 z M 12 28 L 12 29 L 15 29 L 15 28 L 12 28 z M 16 28 L 16 29 L 19 29 L 19 28 L 16 28 z M 20 28 L 20 29 L 23 29 L 23 28 L 20 28 z"/>
 <path style="opacity:0.2" d="M 8 23 L 8 24 L 11 24 L 11 23 L 8 23 z M 12 23 L 12 24 L 15 24 L 15 23 L 12 23 z M 16 23 L 16 24 L 19 24 L 19 23 L 16 23 z"/>
 <path style="opacity:0.2;fill:#f4f4f7" d="M 20 23 L 20 24 L 23 24 L 23 23 L 20 23 z M 16 24 L 16 25 L 19 25 L 19 24 L 16 24 z M 8 25 L 8 26 L 11 26 L 11 25 L 8 25 z M 12 26 L 12 27 L 15 27 L 15 26 L 12 26 z"/>
 <path style="fill:#f4f4f7;opacity:0.2" d="M 15.5 3 A 1.5 1.5 0 0 0 14 4.5 A 1.5 1.5 0 0 0 14.087891 5 A 1.5 1.5 0 0 1 15.5 4 A 1.5 1.5 0 0 1 16.912109 5 A 1.5 1.5 0 0 0 17 4.5 A 1.5 1.5 0 0 0 15.5 3 z"/>
 <path style="opacity:0.2" d="M 15.5 7 A 7.5 7.5 0 0 0 8 14.5 A 7.5 7.5 0 0 0 8.0214844 15.052734 A 7.5 7.5 0 0 1 15.5 8 A 7.5 7.5 0 0 1 22.978516 14.947266 A 7.5 7.5 0 0 0 23 14.5 A 7.5 7.5 0 0 0 15.5 7 z"/>
 <path style="fill:#f4f4f7;opacity:0.2" d="M 8.0351562 2 C 6.9073706 2 6 2.9362094 6 4.0996094 L 6 5.0996094 C 6 3.9362094 6.9073706 3 8.0351562 3 L 22.964844 3 C 24.092629 3 25 3.9362094 25 5.0996094 L 25 4.0996094 C 25 2.9362094 24.092629 2 22.964844 2 L 8.0351562 2 z"/>
</svg>

<svg xmlns="http://www.w3.org/2000/svg" width="32" height="32" version="1"><rect style="opacity:.2" width="19" height="28" x="6" y="3" rx="2.036" ry="2.1"/><rect style="fill:#868686" width="19" height="28" x="6" y="2" rx="2.036" ry="2.1"/><circle style="fill:#555761" cx="15.5" cy="14.5" r="7.5"/><path style="opacity:.2" d="M13.204 10a3.218 3.218 0 0 0-2.783 1.611l-.347.6-.006.011a.12.12 0 0 0 .04.164l4.052 2.344a3.215 3.215 0 0 0-2.553.284A3.213 3.213 0 0 0 10 17.8c0 1.15.614 2.212 1.61 2.787l.6.347.01.006a.12.12 0 0 0 .165-.04l2.325-4.031a3.21 3.21 0 0 0 5.86 2.52l.347-.6.006-.011a.12.12 0 0 0-.04-.164l-3.919-2.265A3.213 3.213 0 0 0 21 13.243c0-1.15-.614-2.212-1.61-2.787l-.6-.347-.01-.006a.12.12 0 0 0-.165.04l-2.365 4.099a3.223 3.223 0 0 0-.262-2.634A3.21 3.21 0 0 0 13.204 10z"/><path style="fill:#9ab4c0" d="M13.204 9a3.218 3.218 0 0 0-2.783 1.611l-.347.6-.006.011a.12.12 0 0 0 .04.164l4.052 2.344a3.215 3.215 0 0 0-2.553.284A3.213 3.213 0 0 0 10 16.8c0 1.15.614 2.212 1.61 2.787l.6.347.01.006a.12.12 0 0 0 .165-.04l2.325-4.031a3.21 3.21 0 0 0 5.86 2.52l.347-.6.006-.011a.12.12 0 0 0-.04-.164l-3.919-2.265A3.213 3.213 0 0 0 21 12.243c0-1.15-.614-2.212-1.61-2.787l-.6-.347-.01-.006a.12.12 0 0 0-.165.04l-2.365 4.099a3.223 3.223 0 0 0-.262-2.634A3.21 3.21 0 0 0 13.204 9z"/><circle style="opacity:.2" cx="21.174" cy="5.673" r="1.5" transform="rotate(30) skewX(.001)"/><circle style="fill:#f4f4f7" cx="20.674" cy="4.807" r="1.5" transform="rotate(30) skewX(.001)"/><circle style="opacity:.2" cx="15.5" cy="5.5" r="1.5"/><circle style="fill:#87d22b" cx="15.5" cy="4.5" r="1.5"/><path style="fill:#555761" d="M8 23v2h3v-2H8zm4 0v3h3v-3h-3zM16 23v1h3v-1z"/><path style="fill:#87d22b" d="M20 23v5h3v-5zM16 24v4h3v-4zM8 25v3h3v-3zM12 26v2h3v-2z"/><path style="opacity:.2" d="M8 28v1h3v-1H8zm4 0v1h3v-1h-3zm4 0v1h3v-1h-3zm4 0v1h3v-1h-3zM8 23v1h3v-1H8zm4 0v1h3v-1h-3zm4 0v1h3v-1h-3z"/><path style="opacity:.2;fill:#f4f4f7" d="M20 23v1h3v-1h-3zm-4 1v1h3v-1h-3zm-8 1v1h3v-1H8zm4 1v1h3v-1h-3z"/><path style="fill:#f4f4f7;opacity:.2" d="M15.5 3A1.5 1.5 0 0 0 14 4.5a1.5 1.5 0 0 0 .088.5A1.5 1.5 0 0 1 15.5 4a1.5 1.5 0 0 1 1.412 1A1.5 1.5 0 0 0 17 4.5 1.5 1.5 0 0 0 15.5 3z"/><path style="opacity:.2" d="M15.5 7A7.5 7.5 0 0 0 8 14.5a7.5 7.5 0 0 0 .021.553A7.5 7.5 0 0 1 15.5 8a7.5 7.5 0 0 1 7.479 6.947A7.5 7.5 0 0 0 23 14.5 7.5 7.5 0 0 0 15.5 7z"/><path style="fill:#f4f4f7;opacity:.2" d="M8.035 2C6.907 2 6 2.936 6 4.1v1C6 3.936 6.907 3 8.035 3h14.93C24.093 3 25 3.936 25 5.1v-1c0-1.164-.907-2.1-2.035-2.1H8.035z"/></svg>
